svg/Pictogram/pictograms-aem-0012-gears.svg

<?xml version="1.0" encoding="ISO-8859-1" standalone="yes"?>
<svg height="304.014" width="304.015">
  <metadata>
    <rdf:RDF xmlns:cc="http://web.resource.org/cc/" xmlns:dc="http://purl.org/dc/elements/1.1/" xmlns:rdf="http://www.w3.org/1999/02/22-rdf-syntax-ns#">
      <cc:Work rdf:about="">
        <dc:title></dc:title>
        <dc:description></dc:description>
        <dc:subject>
          <rdf:Bag>
            <rdf:li></rdf:li>
          </rdf:Bag>
        </dc:subject>
        <dc:publisher>
          <cc:Agent rdf:about="http://www.unece.org/trans/danger/publi/ghs/pictograms.html">
            <dc:title>Source: UNECE GHS of Classification and Labeling of Chemicals, Source: AEM Pictorial Database, Source: AEM Pictorial Database, Source: AEM Pictorial Database, Source: AEM Pictorial Database</dc:title>
          </cc:Agent>
        </dc:publisher>
        <dc:creator>
          <cc:Agent>
            <dc:title></dc:title>
          </cc:Agent>
        </dc:creator>
        <dc:rights>
          <cc:Agent>
            <dc:title></dc:title>
          </cc:Agent>
        </dc:rights>
        <dc:date></dc:date>
        <dc:format>image/svg+xml</dc:format>
        <dc:type rdf:resource="http://purl.org/dc/dcmitype/StillImage"/>
        <cc:license rdf:resource="http://en.wikipedia.org/wiki/Public_domain"/>
        <dc:language>en</dc:language>
      </cc:Work>
    </rdf:RDF>
  </metadata>
  <defs><marker id="ArrowEnd" markerHeight="3" markerUnits="strokeWidth" markerWidth="4" orient="auto" refX="0" refY="5" viewBox="0 0 10 10"><path d="M 0 0 L 10 5 L 0 10 z"/></marker><marker id="ArrowStart" markerHeight="3" markerUnits="strokeWidth" markerWidth="4" orient="auto" refX="10" refY="5" viewBox="0 0 10 10"><path d="M 10 0 L 0 5 L 10 10 z"/></marker> </defs>
  <g id="g2958" transform="matrix(1.3532768,0,0,1.3532781,-53.207834,-52.192858)">
    <path d="M 177.218 103.108L 177.218 113.69L 192.593 107.643C 192.593 107.643 192.464 105.627 193.347 104.366C 194.679 102.463 202.526 100.198 205.694 95.2954C 207.464 92.5534 208.226 85.7374 206.073 83.0734L 185.03 93.6594C 185.03 93.6594 184.401 99.5814 184.022 100.084C 183.644 100.588 177.218 103.108 177.218 103.108" style="stroke:none; fill-rule:evenodd; fill:#000000"/>
    <path d="M 176.968 120.62L 186.417 116.209L 191.585 121.881C 193.03 121.44 197.065 120.874 197.882 120.998L 200.78 114.323L 210.987 115.202L 212.499 122.764C 213.382 122.764 218.296 124.717 218.546 125.221L 224.218 120.874L 232.659 126.67L 230.265 134.104C 231.335 134.795 233.792 138.01 234.425 139.018L 241.354 138.01L 245.765 147.334L 240.218 152.498C 240.534 153.506 241.226 157.916 240.976 158.924L 247.651 161.573L 246.769 171.905L 239.464 173.541C 239.21 174.487 237.511 178.834 236.94 179.588L 241.226 185.131L 235.433 193.577L 228.249 191.307C 227.491 192.252 223.714 195.088 223.085 195.463L 223.964 202.268L 214.64 206.803L 209.601 201.135C 208.718 201.639 204.37 202.143 203.175 202.018L 200.401 208.569L 190.198 207.686L 188.558 200.377C 187.237 200.315 183.394 198.616 182.386 197.983L 176.843 202.143L 168.397 196.346L 170.792 189.166C 169.909 188.596 167.073 184.819 166.636 183.998L 159.706 184.881L 155.296 175.682L 160.964 170.643C 160.585 169.823 159.894 165.541 160.081 164.217L 153.405 161.444L 154.159 151.112L 161.722 149.475C 161.722 148.53 163.608 144.307 164.112 143.678L 159.956 138.01L 165.753 129.19L 173.187 131.581C 173.815 130.702 177.218 128.116 177.976 127.803L 176.968 120.62zM 200.655 130.334C 183.401 130.334 169.417 144.319 169.417 161.573C 169.417 178.823 183.401 192.807 200.655 192.807C 217.905 192.807 231.894 178.823 231.894 161.573C 231.894 144.319 217.905 130.334 200.655 130.334" style="stroke:none; fill-rule:evenodd; fill:#000000"/>
    <path d="M 175.077 126.42L 175.077 100.963C 177.472 100.084 180.62 98.8234 181.253 97.5654C 181.882 96.3034 178.858 84.8384 178.858 84.8384C 178.858 84.8384 182.89 78.5384 184.022 74.8814C 185.085 71.4594 183.14 68.2064 180.745 66.0654C 178.354 63.9204 172.683 63.6704 172.683 63.6704C 172.683 63.6704 173.187 69.5924 172.937 72.1124C 172.683 74.6314 167.769 82.4444 167.769 82.4444L 169.659 91.7684C 169.03 92.5224 165.124 93.9094 165.124 93.9094L 165.124 127.53L 171.39 129.549C 171.851 128.905 173.698 127.409 175.077 126.42" style="stroke:none; fill-rule:evenodd; fill:#000000"/>
    <path d="M 151.089 150.389L 159.155 148.639C 159.155 147.745 160.741 144.108 161.476 142.827C 161.511 142.69 161.558 142.557 161.589 142.416C 161.585 142.37 161.581 142.323 161.577 142.272L 157.272 136.409L 162.206 128.901C 162.765 127.104 163.358 126.416 163.358 126.416C 163.358 126.416 163.499 98.7644 163.241 98.0064L 161.683 96.1824C 161.683 96.1824 161.98 77.4914 161.343 75.6394C 159.284 69.6704 158.319 66.5694 148.237 65.5614L 148.237 104.862L 152.964 105.502L 155.183 112.502L 148.241 119.377L 148.241 129.065C 148.21 129.17 148.171 129.272 148.14 129.377L 153.448 136.479L 150.124 143.065L 140.937 142.998C 138.675 145.678 136.116 147.909 133.394 149.655L 132.034 158.791L 124.827 161.01L 118.601 154.6C 115.714 155.264 112.093 156.624 108.175 156.842C 105.745 156.975 105.019 163.522 102.628 162.569C 88.7064 157.03 84.8624 155.838 79.4444 158.295C 69.7694 162.682 57.5194 178.456 49.9604 188.03L 49.9604 254.053C 56.0074 248.51 81.3154 207.209 84.7374 202.647C 86.1874 200.713 88.3744 198.842 89.0194 198.803C 89.8584 198.756 90.7334 198.366 92.2964 198.741C 95.8194 199.588 137.362 203.295 141.687 204.663C 146.476 206.174 181.253 230.87 181.253 230.87C 181.253 230.87 186.542 221.799 182.007 214.491C 179.144 209.877 155.296 192.569 153.276 190.045C 151.261 187.526 150.327 187.018 149.245 185.51C 148.776 184.854 147.733 181.666 148.237 178.959C 148.632 176.838 150.644 171.022 153.187 162.62L 150.28 161.413L 151.089 150.389" style="stroke:none; fill-rule:evenodd; fill:#000000"/>
    <path d="M 114.913 92.7134C 115.73 92.5844 121.339 92.9634 121.651 93.2174L 129.089 87.4834L 135.136 90.5734L 135.136 99.8934C 136.019 100.397 140.175 105.311 140.3 105.752L 149.624 107.014L 151.64 113.377L 144.964 119.991C 145.343 120.682 144.647 127.424 144.46 127.678L 150.065 135.174L 147.042 141.159L 137.718 141.096C 137.468 141.725 131.417 146.385 131.983 146.135L 130.601 155.459L 124.046 157.475L 117.558 150.799C 116.866 151.049 110.44 150.545 109.999 150.233L 102.374 155.776L 96.3274 152.752L 96.4524 143.237C 96.0734 143.174 91.6634 138.073 91.6044 137.506L 82.1514 136.057L 80.1984 129.569L 87.0034 123.014C 86.7534 122.385 87.1904 115.959 87.6324 115.456L 82.1514 107.834L 85.2374 101.784L 94.7534 101.975C 95.0654 101.217 99.7304 97.4364 100.421 97.2484L 102.062 87.7994L 108.55 85.8464L 114.913 92.7134zM 116.233 100.424C 104.249 100.424 94.5304 110.139 94.5304 122.127C 94.5304 134.112 104.249 143.831 116.233 143.831C 128.222 143.831 137.937 134.116 137.937 122.127C 137.937 110.139 128.222 100.424 116.233 100.424" style="stroke:none; fill-rule:evenodd; fill:#000000"/>
    <path d="M 29.6204 265.393L 2.62042 265.393" style="stroke:#000000; stroke-width:0.5; fill:none"/>
    <path d="M 38.6204 274.393L 38.6204 301.393" style="stroke:#000000; stroke-width:0.5; fill:none"/>
    <path d="M 29.6204 38.6204L 2.62042 38.6204" style="stroke:#000000; stroke-width:0.5; fill:none"/>
    <path d="M 38.6204 29.6204L 38.6204 2.62042" style="stroke:#000000; stroke-width:0.5; fill:none"/>
    <path d="M 274.394 38.6204L 301.394 38.6204" style="stroke:#000000; stroke-width:0.5; fill:none"/>
    <path d="M 265.394 29.6204L 265.394 2.62042" style="stroke:#000000; stroke-width:0.5; fill:none"/>
    <path d="M 274.394 265.393L 301.394 265.393" style="stroke:#000000; stroke-width:0.5; fill:none"/>
    <path d="M 265.394 274.393L 265.394 301.393" style="stroke:#000000; stroke-width:0.5; fill:none"/>
  </g>
</svg>

<svg viewBox="0 0 304.01 304.01"><g transform="matrix(1.35328 0 0 1.35328-53.21-52.19)" fill-rule="evenodd"><path d="m177.22 103.11v10.582l15.375-6.05c0 0-.129-2.02.754-3.277 1.332-1.903 9.179-4.168 12.347-9.07 1.77-2.742 2.532-9.558.379-12.222l-21.04 10.586c0 0-.629 5.922-1.01 6.425-.378.504-6.804 3.02-6.804 3.02"/><path d="m176.97 120.62l9.449-4.411 5.168 5.672c1.445-.441 5.48-1.01 6.297-.883l2.898-6.675 10.207.879 1.512 7.562c.883 0 5.797 1.953 6.05 2.457l5.672-4.347 8.441 5.796-2.394 7.434c1.07.691 3.527 3.906 4.16 4.914l6.929-1.01 4.411 9.324-5.547 5.164c.316 1.01 1.01 5.418.758 6.426l6.675 2.649-.882 10.332-7.305 1.636c-.254.946-1.953 5.293-2.524 6.05l4.286 5.543-5.793 8.446-7.184-2.27c-.758.945-4.535 3.781-5.164 4.156l.879 6.805-9.324 4.535-5.04-5.668c-.883.504-5.231 1.01-6.426.883l-2.774 6.551-10.203-.883-1.64-7.309c-1.321-.062-5.164-1.761-6.172-2.394l-5.543 4.16-8.446-5.797 2.395-7.18c-.883-.57-3.719-4.347-4.156-5.168l-6.93.883-4.41-9.199 5.668-5.04c-.379-.82-1.07-5.102-.883-6.426l-6.676-2.773.754-10.332 7.563-1.637c0-.945 1.886-5.168 2.39-5.797l-4.156-5.668 5.797-8.82 7.434 2.391c.628-.879 4.03-3.465 4.789-3.778l-1.01-7.183m23.687 9.714c-17.254 0-31.24 13.985-31.24 31.24 0 17.25 13.984 31.23 31.24 31.23 17.25 0 31.24-13.984 31.24-31.23 0-17.254-13.989-31.24-31.24-31.24"/><path d="m175.08 126.42v-25.457c2.395-.879 5.543-2.14 6.176-3.398.629-1.262-2.395-12.727-2.395-12.727 0 0 4.03-6.3 5.164-9.957 1.063-3.422-.882-6.675-3.277-8.816-2.391-2.145-8.06-2.395-8.06-2.395 0 0 .504 5.922.254 8.442-.254 2.519-5.168 10.332-5.168 10.332l1.89 9.324c-.629.754-4.535 2.141-4.535 2.141v33.621l6.266 2.02c.461-.644 2.308-2.14 3.687-3.129"/><path d="m151.09 150.39l8.07-1.75c0-.894 1.586-4.531 2.321-5.812.035-.137.082-.27.113-.411-.004-.046-.008-.093-.012-.144l-4.305-5.863 4.934-7.508c.559-1.797 1.152-2.485 1.152-2.485 0 0 .141-27.652-.117-28.41l-1.558-1.824c0 0 .297-18.691-.34-20.543-2.059-5.969-3.02-9.07-13.11-10.08v39.3l4.727.64 2.219 7-6.942 6.875v9.688c-.031.105-.07.207-.101.312l5.308 7.102-3.324 6.586-9.187-.067c-2.262 2.68-4.821 4.911-7.543 6.657l-1.36 9.136-7.207 2.219-6.226-6.41c-2.887.664-6.508 2.024-10.426 2.242-2.43.133-3.156 6.68-5.547 5.727-13.922-5.539-17.766-6.731-23.18-4.274-9.675 4.387-21.925 20.16-29.484 29.735v66.02c6.05-5.543 31.355-46.844 34.777-51.41 1.45-1.934 3.637-3.805 4.282-3.844.839-.047 1.714-.437 3.277-.062 3.523.847 45.07 4.554 49.39 5.922 4.789 1.511 39.566 26.21 39.566 26.21 0 0 5.289-9.07.754-16.379-2.863-4.614-26.711-21.922-28.731-24.446-2.02-2.519-2.949-3.03-4.03-4.535-.469-.656-1.512-3.844-1.01-6.551.395-2.121 2.407-7.937 4.95-16.339l-2.907-1.207.809-11.02"/><path d="m114.91 92.71c.817-.129 6.426.25 6.738.504l7.438-5.734 6.05 3.09v9.32c.883.504 5.04 5.418 5.164 5.859l9.324 1.262 2.02 6.363-6.676 6.614c.379.691-.317 7.433-.504 7.687l5.605 7.496-3.02 5.985-9.324-.063c-.25.629-6.301 5.289-5.735 5.04l-1.382 9.324-6.555 2.02-6.488-6.676c-.692.25-7.118-.254-7.559-.566l-7.625 5.543-6.05-3.02.125-9.515c-.379-.063-4.789-5.164-4.848-5.731l-9.453-1.449-1.953-6.488 6.805-6.555c-.25-.629.187-7.05.629-7.558l-5.481-7.622 3.086-6.05 9.516.191c.312-.758 4.977-4.539 5.668-4.727l1.641-9.449 6.488-1.953 6.363 6.867m1.32 7.711c-11.984 0-21.703 9.715-21.703 21.703 0 11.985 9.719 21.704 21.703 21.704 11.989 0 21.704-9.715 21.704-21.704 0-11.988-9.715-21.703-21.704-21.703"/></g></svg>
